X:1
T:Song 67 (Gibbons), CM
T:Orlando Gibbons, 1623; arr. by Henry T. Smart
T:Song 67 (Gibbons), CM
T:Public Domain
C:Orlando Gibbons, 1623; arr. by Henry T. Smart
Z:Public Domain
%%score ( 1 2 ) ( 3 4 )
L:1/8
M:4/4
K:Eb
V:1 treble 
V:2 treble 
V:3 bass 
V:4 bass 
V:1
 [B,E]2 | [B,B]2 [EG]2 [EA]2 [DB]2 | (CD) [Ec]2 [EB]2 [EB]2 | [Ge]2 [Ec]2 [Gd]2 (FG) | %4
 [Ec]6 [Ge]2 | [Gd]2 [Ec]2 [EB]2 [B,B]2 | (CD) [EG]2 [DF]2 [DB]2 | [DB]2 E2 [EG]2 [DF]2 x | E6 |] %9
V:2
 x2 | x8 | c2 x6 | x6 d2 | x8 | x8 | A2 x6 | x2 E2 x5 | E6 |] %9
V:3
 [E,G,]2 | [D,F,]2 [E,B,]2 [C,A,]2 (F,G,) | [A,,A,]2 (E,F,) [E,G,]2 [E,G,]2 | %3
 [C,G,]2 [C,C]2 [G,C]2 [G,=B,]2 | [C,C]6 [C,C]2 | [G,,B,]2 [A,,A,]2 [E,G,]2 [G,B,]2 | %6
 F,2 (G,A,) [B,,B,]2 [B,,F,]2 | [G,,G,]2 [C,G,]2 (B,,2 z) A, x | [E,G,]6 |] %9
V:4
 x2 | x6 B,,2 | x2 A,,2 x4 | x8 | x8 | x8 | F,2 E,2 x4 | x4 B,3 B,,2 | x6 |] %9

